X: 30241
M: 6/8
L: 1/8
K: G
V: 1 staves=3
!p!D |\
"^cresc."\
|: A |!f!\
d2d ^cBc | d2d d2^d | e2e ^d^cd | e2e e2^e |\
f2f ^e^de | f2f g2=e | dfa AB^c | d2f d2 :|
|: d |\
b2a g2a | b2c' d'c'b | a2g f2g | a2b c'ba |\
b2a g2a | b2c' d'c'b | afd def | g2b g2 :|
V: 2
!p!D |\
E2E E2E | E2E G2G | B2A G2G | F2F F2D |
"^cresc."\
|: A |!f!\
^A2A B2B | ^A2B B2G | F2F G2G | F2A F2 :|
|: d |\
d2c B2A | G2A BAG | c2B A2G | F2G AGF |\
d2c B2A | G2A BAG | FAd d^c=c | B2d B2 :|
V: 3 clef=bass middle=d
z |\
g2g g2g | g2g g2g | e2e e2e | d2d d2d |\
e2e e2e | c2c c2c | g2g e2e | d2d d2z |
g2g g2g | g2g g2g | d2d d2d | d2d d2d |\
e2e c2c | d2d d2d | gdB GBd | g2z z2 :|
|: z |\
d2d e2e | f2e d2f | e2e f2f | g2f e2g |\
f2f g2g | d2b e2g | a2a A2A | d2d d2 :|
|: z |\


